svg/Octicons/terminal.svg

<svg xmlns="http://www.w3.org/2000/svg" viewBox="0 0 896 1024"><path d="m831 127h-768c-35.35 0-64 28.65-64 64v640c0 35.35 28.65 64 64 64h768c35.35 0 64-28.65 64-64v-640c0-35.35-28.65-64-64-64m-704 448l128-128-128-128 64-64 192 192-192 192-64-64m512 64h-256v-64h256v64"/></svg>

<svg height="1024" width="896" xmlns="http://www.w3.org/2000/svg">
  <path d="M831 127H63c-35.35 0-64 28.65-64 64v640c0 35.35 28.65 64 64 64h768c35.35 0 64-28.65 64-64V191C895 155.64999999999998 866.35 127 831 127zM127 575l128-128L127 319l64-64 192 192L191 639 127 575zM639 639H383v-64h256V639z" />
</svg>
